src/assets/call_logo-white.svg

<svg viewBox="0 -0.5 25 25" fill="none" xmlns="http://www.w3.org/2000/svg" stroke="#ffffff" transform="matrix(1, 0, 0, 1, 0, 0)"><g id="SVGRepo_bgCarrier" stroke-width="0"></g><g id="SVGRepo_tracerCarrier" stroke-linecap="round" stroke-linejoin="round"></g><g id="SVGRepo_iconCarrier"> <path fill-rule="evenodd" clip-rule="evenodd" d="M6.36343 6.36195C7.24343 5.43495 7.55443 5.17495 7.92943 5.05395C8.18895 4.98595 8.46112 4.98217 8.72243 5.04295C9.06643 5.14295 9.15743 5.21895 10.2854 6.34295C11.2764 7.32995 11.3754 7.43695 11.4704 7.62995C11.6521 7.96873 11.6805 8.36894 11.5484 8.72995C11.4484 9.00495 11.3064 9.18695 10.7054 9.78995L10.3134 10.183C10.2105 10.2876 10.1863 10.4464 10.2534 10.577C11.1244 12.0628 12.36 13.3019 13.8434 14.177C14.0142 14.2684 14.2245 14.2389 14.3634 14.104L14.7404 13.733C14.9734 13.4941 15.2202 13.2691 15.4794 13.059C15.8866 12.809 16.3939 12.7867 16.8214 13C17.0304 13.1 17.0994 13.162 18.1214 14.182C19.1754 15.233 19.2054 15.266 19.3214 15.507C19.5397 15.9059 19.5374 16.3891 19.3154 16.786C19.2024 17.01 19.1334 17.091 18.5404 17.697C18.1824 18.063 17.8454 18.397 17.7914 18.446C17.3022 18.851 16.6746 19.0497 16.0414 19C14.883 18.8944 13.7617 18.5363 12.7564 17.951C10.5296 16.7711 8.63383 15.0521 7.24243 12.951C6.93937 12.5112 6.66994 12.0492 6.43643 11.569C5.81001 10.4953 5.48653 9.27189 5.50043 8.02895C5.54825 7.37871 5.86008 6.77637 6.36343 6.36195Z" stroke="#ffffff" stroke-width="1.5" stroke-linecap="round" stroke-linejoin="round"></path> </g></svg>

<svg xmlns="http://www.w3.org/2000/svg" fill="none" stroke="#fff" viewBox="0 -0.5 25 25"><path stroke-linecap="round" stroke-linejoin="round" stroke-width="1.5" d="M6.363 6.362c.88-.927 1.191-1.187 1.566-1.308.26-.068.532-.072.793-.011.344.1.435.176 1.563 1.3.991.987 1.09 1.094 1.185 1.287.182.339.21.739.078 1.1-.1.275-.242.457-.843 1.06l-.392.393a.34.34 0 0 0-.06.394 10.124 10.124 0 0 0 3.59 3.6c.171.091.382.062.52-.073l.377-.371c.233-.239.48-.464.74-.674.407-.25.914-.272 1.341-.059.21.1.278.162 1.3 1.182 1.054 1.051 1.084 1.084 1.2 1.325.219.399.216.882-.006 1.279-.113.224-.182.305-.775.911-.358.366-.695.7-.749.749a2.444 2.444 0 0 1-1.75.554 7.966 7.966 0 0 1-3.285-1.049 15.084 15.084 0 0 1-5.514-5c-.303-.44-.572-.902-.806-1.382a6.872 6.872 0 0 1-.936-3.54c.048-.65.36-1.253.863-1.667Z" clip-rule="evenodd"/></svg>
